Yaru++/actions/16/stock_task-assigned.svg

<svg height="16" width="16" xmlns="http://www.w3.org/2000/svg">
  <g fill="#808080" transform="translate(-472 -280)">
    <path d="m475.99414 281c-1.2582.0145-2.17889-.0306-2.93164.38477-.1894.10449-.35759.24583-.5.41601h-.0625v.0879c-.11056.14835-.20685.31154-.27539.49414-.16467.43866-.22461.95957-.22461 1.61718v8c0 .65761.0599 1.17858.22461 1.61719.16468.43861.46153.78852.83789.99609.75272.41513 1.67354.37165 2.93164.38672h.002 8.00586.004c1.25819-.0145 2.17889.0306 2.93164-.38477.37637-.20766.67322-.55938.83789-.99804.16439-.43867.22447-.95958.22447-1.61719v-8c0-.65761-.0599-1.17858-.22461-1.61719-.0685-.18245-.16493-.34429-.27539-.49219v-.0898h-.0625c-.1422-.16917-.31105-.30985-.5-.41406-.75272-.41513-1.67355-.37165-2.93164-.38672h-.002-8.00586zm-2.99414 3h14v8c0 .59239-.0626 1.00573-.16016 1.26562-.0976.25991-.20135.37147-.38476.47266-.36596.20192-1.19656.24701-2.45508.26172h-7.99414-.00586c-1.25863-.0152-2.0891-.0599-2.45508-.26172-.18342-.10116-.28722-.21286-.38476-.47266-.09755-.25979-.16016-.67323-.16016-1.26562z"/>
    <path d="m477 285h9v1h-9z" opacity=".5"/>
    <path d="m477 287h9v1h-9z" opacity=".5"/>
    <path d="m477 289h9v1h-9z" opacity=".5"/>
    <path d="m477 291h5v1h-5z" opacity=".5"/>
    <path d="m475 284h1v10h-1z" opacity=".5"/>
  </g>
  <path d="m2.9961356 8.4999997h8.0019994v2.0000003c.76-.348 1.534-.736 2.322-1.1660003.781-.43 1.535-.876 2.26-1.3339997-.725-.45-1.479-.89-2.26-1.32-.762585-.416688-1.537607-.810202-2.324-1.18v2h-7.9999994z" fill="#ff9f0a"/>
</svg>

<svg xmlns="http://www.w3.org/2000/svg" width="16" height="16" version="1.1">
 <g transform="translate(-472,-280)">
  <path d="m 475.99414,281 c -1.2582,0.0145 -2.17889,-0.0306 -2.93164,0.38477 -0.1894,0.10449 -0.35759,0.24583 -0.5,0.41601 H 472.5 v 0.0879 c -0.11056,0.14835 -0.20685,0.31154 -0.27539,0.49414 C 472.05994,282.82148 472,283.34239 472,284 v 8 c 0,0.65761 0.0599,1.17858 0.22461,1.61719 0.16468,0.43861 0.46153,0.78852 0.83789,0.99609 0.75272,0.41513 1.67354,0.37165 2.93164,0.38672 h 0.002 8.00586 0.004 c 1.25819,-0.0145 2.17889,0.0306 2.93164,-0.38477 0.37637,-0.20766 0.67322,-0.55938 0.83789,-0.99804 C 487.93992,293.17852 488,292.65761 488,292 v -8 c 0,-0.65761 -0.0599,-1.17858 -0.22461,-1.61719 -0.0685,-0.18245 -0.16493,-0.34429 -0.27539,-0.49219 v -0.0898 h -0.0625 c -0.1422,-0.16917 -0.31105,-0.30985 -0.5,-0.41406 -0.75272,-0.41513 -1.67355,-0.37165 -2.93164,-0.38672 h -0.002 -8.00586 z M 473,284 h 14 v 8 c 0,0.59239 -0.0626,1.00573 -0.16016,1.26562 -0.0976,0.25991 -0.20135,0.37147 -0.38476,0.47266 C 486.08912,293.9402 485.25852,293.98529 484,294 H 476.00586 476 c -1.25863,-0.0152 -2.0891,-0.0599 -2.45508,-0.26172 -0.18342,-0.10116 -0.28722,-0.21286 -0.38476,-0.47266 C 473.06261,293.00583 473,292.59239 473,292 Z" style="fill:#808080"/>
  <rect style="opacity:0.5;fill:#808080" width="9" height="1" x="477" y="285"/>
  <rect style="opacity:0.5;fill:#808080" width="9" height="1" x="477" y="287"/>
  <rect style="opacity:0.5;fill:#808080" width="9" height="1" x="477" y="289"/>
  <rect style="opacity:0.5;fill:#808080" width="5" height="1" x="477" y="291"/>
  <rect style="opacity:0.5;fill:#808080" width="1" height="10" x="475" y="284"/>
 </g>
 <path d="M 2.9961356,8.4999997 H 10.998135 V 10.5 c 0.76,-0.348 1.534,-0.736 2.322,-1.1660003 0.781,-0.43 1.535,-0.876 2.26,-1.3339997 -0.725,-0.45 -1.479,-0.89 -2.26,-1.32 -0.762585,-0.416688 -1.537607,-0.810202 -2.324,-1.18 v 2 H 2.9961356 Z" font-weight="400" overflow="visible" style="fill:#ff6d00"/>
</svg>
